Yaru++/apps/scalable/informazioni.svg

<svg enable-background="new" height="256" width="256" xmlns="http://www.w3.org/2000/svg" xmlns:xlink="http://www.w3.org/1999/xlink">
  <linearGradient id="linearGradient11065" gradientUnits="userSpaceOnUse" x1="-176.752" x2="-80.752" y1="-279.24799" y2="-55.24799">
    <stop offset="0" stop-color="#5884f4"/>
    <stop offset="1" stop-color="#80a3fa"/>
  </linearGradient>
  <filter id="filter11191" color-interpolation-filters="sRGB" height="1.024" width="1.024" x="-.01" y="-.01">
    <feGaussianBlur stdDeviation="1.12"/>
  </filter>
  <filter id="filter11210" color-interpolation-filters="sRGB" height="1.096" width="1.096" x="-.05" y="-.05">
    <feGaussianBlur stdDeviation="4.48"/>
  </filter>
  <filter id="filter993" color-interpolation-filters="sRGB" height="1.015637" width="1.051597" x="-.025798" y="-.007818">
    <feGaussianBlur stdDeviation=".026875526"/>
  </filter>
  <filter id="filter1011" color-interpolation-filters="sRGB" height="1.062547" width="1.206387" x="-.103193" y="-.031273">
    <feGaussianBlur stdDeviation=".1075021"/>
  </filter>
  <g transform="translate(0 -44)">
    <circle cx="128.752" cy="171.248" filter="url(#filter11210)" opacity=".1" r="112"/>
    <circle cx="128.752" cy="169.248" filter="url(#filter11191)" opacity=".1" r="112"/>
    <circle cx="128.752" cy="167.248" opacity=".1" r="114"/>
    <circle cx="-128.752" cy="-167.248" fill="url(#linearGradient11065)" r="112" transform="scale(-1)"/>
    <path d="m16.752003 176.94391a112.5345 112.53445 0 0 0 111.977527 102.30409 112.5345 112.53445 0 0 0 112.02247-102.30409z" fill="#fff" opacity=".1"/>
    <path d="m128.752 55.248002a112 112 0 0 0 -111.999997 111.999998 112 112 0 0 0 .04102 1.16992 112 112 0 0 1 111.958977-111.169918 112 112 0 0 1 111.95898 110.830078 112 112 0 0 0 .041-.83008 112 112 0 0 0 -112-111.999998z" fill="#fff" opacity=".3"/>
    <path d="m128.752 279.248a112 112 0 0 1 -111.999997-112 112 112 0 0 1 .04102-1.16992 112 112 0 0 0 111.958977 111.16992 112 112 0 0 0 111.95898-110.83008 112 112 0 0 1 .041.83008 112 112 0 0 1 -112 112z" opacity=".2"/>
  </g>
  <g fill="#808080" transform="matrix(14 0 0 14 -227.11864 -53.288133)">
    <path d="m25.387331 8.7384377c-.386 0-.69.124-.914.373a1.27 1.27 0 0 0 -.336.877c0 .3360003.112.6280003.336.8770003s.528.373.914.373.69-.124.914-.373a1.27 1.27 0 0 0 .336-.8770003 1.27 1.27 0 0 0 -.336-.877c-.224-.249-.528-.373-.914-.373zm-1 3.2500003v5h2v-5z" fill="#000" filter="url(#filter993)" opacity=".1"/>
    <path d="m25.387331 8.7384377c-.386 0-.69.124-.914.373a1.27 1.27 0 0 0 -.336.877c0 .3360003.112.6280003.336.8770003s.528.373.914.373.69-.124.914-.373a1.27 1.27 0 0 0 .336-.8770003 1.27 1.27 0 0 0 -.336-.877c-.224-.249-.528-.373-.914-.373zm-1 3.2500003v5h2v-5z" fill="#000" filter="url(#filter1011)" opacity=".1"/>
    <path d="m25.387331 8.7384377c-.386 0-.69.124-.914.373a1.27 1.27 0 0 0 -.336.877c0 .3360003.112.6280003.336.8770003s.528.373.914.373.69-.124.914-.373a1.27 1.27 0 0 0 .336-.8770003 1.27 1.27 0 0 0 -.336-.877c-.224-.249-.528-.373-.914-.373zm-1 3.2500003v5h2v-5z" fill="#fff"/>
  </g>
</svg>

<?xml version="1.0" encoding="UTF-8" standalone="no"?>
<svg
   xmlns:osb="http://www.openswatchbook.org/uri/2009/osb"
   xmlns:dc="http://purl.org/dc/elements/1.1/"
   xmlns:cc="http://creativecommons.org/ns#"
   xmlns:rdf="http://www.w3.org/1999/02/22-rdf-syntax-ns#"
   xmlns:svg="http://www.w3.org/2000/svg"
   xmlns="http://www.w3.org/2000/svg"
   xmlns:xlink="http://www.w3.org/1999/xlink"
   xmlns:sodipodi="http://sodipodi.sourceforge.net/DTD/sodipodi-0.dtd"
   xmlns:inkscape="http://www.inkscape.org/namespaces/inkscape"
   width="256"
   height="256"
   version="1.0"
   style="enable-background:new"
   id="svg55"
   sodipodi:docname="livepatch.svg"
   inkscape:version="0.92.4 (5da689c313, 2019-01-14)">
  <metadata
     id="metadata59">
    <rdf:RDF>
      <cc:Work
         rdf:about="">
        <dc:format>image/svg+xml</dc:format>
        <dc:type
           rdf:resource="http://purl.org/dc/dcmitype/StillImage" />
        <dc:title>
  Suru App Icon Template
 </dc:title>
      </cc:Work>
    </rdf:RDF>
  </metadata>
  <sodipodi:namedview
     pagecolor="#ffffff"
     bordercolor="#666666"
     borderopacity="1"
     objecttolerance="10"
     gridtolerance="10"
     guidetolerance="10"
     inkscape:pageopacity="0"
     inkscape:pageshadow="2"
     inkscape:window-width="1920"
     inkscape:window-height="1016"
     id="namedview57"
     showgrid="false"
     inkscape:zoom="0.921875"
     inkscape:cx="128"
     inkscape:cy="132.59165"
     inkscape:window-x="0"
     inkscape:window-y="27"
     inkscape:window-maximized="1"
     inkscape:current-layer="g978" />
  <title
     id="title3004">
  Suru App Icon Template
 </title>
  <defs
     id="defs30">
    <clipPath
       id="clipPath9430"
       clipPathUnits="userSpaceOnUse">
      <path
         d="m 166.0625,-196 h 179.875 C 491.2348,-196 512,-175.28677 512,-30.125 v 148.25 C 512,263.28618 491.2348,284 345.9375,284 H 166.0625 C 20.7652,284 0,263.28618 0,118.125 V -30.125 C 0,-175.28677 20.7652,-196 166.0625,-196 Z"
         style="fill:#ffffff"
         id="path3" />
    </clipPath>
    <clipPath
       id="clipPath1082"
       clipPathUnits="userSpaceOnUse">
      <path
         d="M 361.9375,-212 C 507.2348,-212 528,-191.28677 528,-46.125 V 70.125 C 528,215.28618 507.2348,236 361.9375,236 H 214.0625 C 68.7652,236 48,215.28618 48,70.125 V -46.125 C 48,-191.28677 68.7652,-212 214.0625,-212 Z"
         style="fill:#8c59d9"
         id="path6" />
    </clipPath>
    <clipPath
       id="clipPath1082-3"
       clipPathUnits="userSpaceOnUse">
      <path
         d="M 361.9375,-212 C 507.2348,-212 528,-191.28677 528,-46.125 V 70.125 C 528,215.28618 507.2348,236 361.9375,236 H 214.0625 C 68.7652,236 48,215.28618 48,70.125 V -46.125 C 48,-191.28677 68.7652,-212 214.0625,-212 Z"
         style="fill:#8c59d9"
         id="path9" />
    </clipPath>
    <clipPath
       id="clipPath1082-3-3675"
       clipPathUnits="userSpaceOnUse">
      <path
         d="M 361.9375,-212 C 507.2348,-212 528,-191.28677 528,-46.125 V 70.125 C 528,215.28618 507.2348,236 361.9375,236 H 214.0625 C 68.7652,236 48,215.28618 48,70.125 V -46.125 C 48,-191.28677 68.7652,-212 214.0625,-212 Z"
         style="fill:#8c59d9"
         id="path12" />
    </clipPath>
    <linearGradient
       id="linearGradient954">
      <stop
         id="stop950"
         offset="0"
         style="stop-color:#faf8f6" />
      <stop
         id="stop952"
         offset="1"
         style="stop-color:#f1f0e9" />
    </linearGradient>
    <filter
       style="color-interpolation-filters:sRGB"
       id="filter5380"
       width="1.023"
       height="1.026"
       x="-.01"
       y="-.01">
      <feGaussianBlur
         id="feGaussianBlur5382"
         stdDeviation=".68" />
    </filter>
    <filter
       style="color-interpolation-filters:sRGB"
       id="filter5358"
       width="1.227"
       height="1.255"
       x="-.11"
       y="-.13">
      <feGaussianBlur
         id="feGaussianBlur5360"
         stdDeviation="6.8" />
    </filter>
    <linearGradient
       id="linearGradient11065"
       x1="104"
       x2="200"
       y1="44"
       y2="268"
       gradientTransform="translate(-280.752,-323.24799)"
       gradientUnits="userSpaceOnUse"
       xlink:href="#linearGradient3650-7-9" />
    <linearGradient
       id="linearGradient7537">
      <stop
         style="stop-color:#f37e40"
         id="stop7539"
         offset="0" />
      <stop
         style="stop-color:#f34f17"
         id="stop7541"
         offset="1" />
    </linearGradient>
    <filter
       style="color-interpolation-filters:sRGB"
       id="filter11191"
       width="1.024"
       height="1.024"
       x="-.01"
       y="-.01">
      <feGaussianBlur
         id="feGaussianBlur11193"
         stdDeviation="1.12" />
    </filter>
    <filter
       style="color-interpolation-filters:sRGB"
       id="filter11210"
       width="1.096"
       height="1.096"
       x="-.05"
       y="-.05">
      <feGaussianBlur
         id="feGaussianBlur11212"
         stdDeviation="4.48" />
    </filter>
    <linearGradient
       osb:paint="solid"
       id="linearGradient5606">
      <stop
         style="stop-color:#000000"
         offset="0"
         id="stop5608" />
    </linearGradient>
    <linearGradient
       osb:paint="solid"
       id="linearGradient4526">
      <stop
         style="stop-color:#ffffff"
         offset="0"
         id="stop4528" />
    </linearGradient>
    <linearGradient
       osb:paint="gradient"
       id="linearGradient3600-4">
      <stop
         style="stop-color:#f4f4f4"
         offset="0"
         id="stop3602-7" />
      <stop
         style="stop-color:#dbdbdb"
         offset="1"
         id="stop3604-6" />
    </linearGradient>
    <linearGradient
       id="linearGradient3650-7-9">
      <stop
         offset="0"
         id="stop4366-9"
         style="stop-color:#5884f4" />
      <stop
         style="stop-color:#80a3fa"
         offset="1"
         id="stop4368" />
    </linearGradient>
    <linearGradient
       xlink:href="#linearGradient1615"
       gradientUnits="userSpaceOnUse"
       gradientTransform="matrix(2,0,0,0.99805068,-296.6664,-28.271629)"
       y2="156"
       y1="156"
       x2="256"
       x1="248"
       id="linearGradient1617" />
    <linearGradient
       id="linearGradient1615">
      <stop
         offset="0"
         id="stop1611"
         style="stop-color:#000000" />
      <stop
         offset="1"
         id="stop1613"
         style="stop-color:#000000;stop-opacity:0" />
    </linearGradient>
    <linearGradient
       xlink:href="#linearGradient3650-7-9"
       gradientUnits="userSpaceOnUse"
       gradientTransform="matrix(0,-0.453125,-0.45311204,0,253.29054,239.17477)"
       y2="169.657"
       y1="386.295"
       x2="4.414"
       x1="494.345"
       id="linearGradient4226" />
    <linearGradient
       xlink:href="#linearGradient4360"
       gradientUnits="userSpaceOnUse"
       y2="488"
       y1="88"
       x2="488"
       x1="88"
       id="linearGradient4358" />
    <linearGradient
       id="linearGradient4360">
      <stop
         style="stop-color:#000000;stop-opacity:0.58823532"
         offset="0"
         id="stop4362" />
      <stop
         offset=".88"
         id="stop4364"
         style="stop-color:#000000;stop-opacity:0" />
      <stop
         style="stop-color:#000000"
         offset="1"
         id="stop4366" />
    </linearGradient>
    <filter
       y="-.04"
       x="-.05"
       height="1.088"
       width="1.106"
       id="filter4380"
       style="color-interpolation-filters:sRGB">
      <feGaussianBlur
         stdDeviation="8.48"
         id="feGaussianBlur4382" />
    </filter>
    <filter
       y="-.01"
       x="-.01"
       height="1.022"
       width="1.026"
       id="filter4346"
       style="color-interpolation-filters:sRGB">
      <feGaussianBlur
         stdDeviation="2.12"
         id="feGaussianBlur4348" />
    </filter>
    <filter
       inkscape:collect="always"
       style="color-interpolation-filters:sRGB"
       id="filter993"
       x="-0.025798336"
       width="1.0515967"
       y="-0.0078183346"
       height="1.0156367">
      <feGaussianBlur
         inkscape:collect="always"
         stdDeviation="0.026875526"
         id="feGaussianBlur995" />
    </filter>
    <filter
       inkscape:collect="always"
       style="color-interpolation-filters:sRGB"
       id="filter1011"
       x="-0.10319335"
       width="1.2063867"
       y="-0.031273338"
       height="1.0625467">
      <feGaussianBlur
         inkscape:collect="always"
         stdDeviation="0.1075021"
         id="feGaussianBlur1013" />
    </filter>
  </defs>
  <g
     id="layer1"
     transform="translate(0,-44)">
    <g
       id="layer9">
      <g
         id="layer11">
        <circle
           style="opacity:0.1;filter:url(#filter11210)"
           cx="128.752"
           cy="171.248"
           r="112"
           id="circle32" />
        <circle
           style="opacity:0.1;filter:url(#filter11191)"
           cx="128.752"
           cy="169.248"
           r="112"
           id="circle34" />
        <circle
           style="opacity:0.1"
           cx="128.752"
           cy="167.248"
           r="114"
           id="circle36" />
        <circle
           style="fill:url(#linearGradient11065);fill-opacity:1.0"
           cx="-128.752"
           cy="-167.248"
           r="112"
           transform="scale(-1)"
           id="circle38" />
        <path
           style="opacity:0.1;fill:#ffffff"
           d="M 16.752003,176.94391 A 112.5345,112.53445 0 0 0 128.72953,279.248 112.5345,112.53445 0 0 0 240.752,176.94391 Z"
           id="path40" />
        <path
           style="opacity:0.3;fill:#ffffff"
           d="M 128.752,55.248002 A 112,112 0 0 0 16.752003,167.248 112,112 0 0 0 16.793023,168.41792 112,112 0 0 1 128.752,57.248002 112,112 0 0 1 240.71098,168.07808 a 112,112 0 0 0 0.041,-0.83008 112,112 0 0 0 -112,-111.999998 z"
           id="path48" />
        <path
           style="opacity:0.2"
           d="m 128.752,279.248 a 112,112 0 0 1 -111.999997,-112 112,112 0 0 1 0.04102,-1.16992 A 112,112 0 0 0 128.752,277.248 112,112 0 0 0 240.71098,166.41792 a 112,112 0 0 1 0.041,0.83008 112,112 0 0 1 -112,112 z"
           id="path50" />
      </g>
    </g>
  </g>
  <g
     id="g978"
     style="fill:#808080"
     transform="matrix(14,0,0,14,-227.11864,-53.288133)">
    <path
       inkscape:connector-curvature="0"
       d="m 25.387331,8.7384377 c -0.386,0 -0.69,0.124 -0.914,0.373 a 1.27,1.27 0 0 0 -0.336,0.877 c 0,0.3360003 0.112,0.6280003 0.336,0.8770003 0.224,0.249 0.528,0.373 0.914,0.373 0.386,0 0.69,-0.124 0.914,-0.373 a 1.27,1.27 0 0 0 0.336,-0.8770003 1.27,1.27 0 0 0 -0.336,-0.877 c -0.224,-0.249 -0.528,-0.373 -0.914,-0.373 z m -1,3.2500003 v 5 h 2 v -5 z"
       style="font-weight:400;line-height:1000%;font-family:Ubuntu;-inkscape-font-specification:Ubuntu;letter-spacing:0;word-spacing:0;fill:#000000;fill-opacity:1;filter:url(#filter993);opacity:0.1"
       font-weight="400"
       letter-spacing="0"
       word-spacing="0"
       id="path991" />
    <path
       id="path997"
       word-spacing="0"
       letter-spacing="0"
       font-weight="400"
       style="font-weight:400;line-height:1000%;font-family:Ubuntu;-inkscape-font-specification:Ubuntu;letter-spacing:0;word-spacing:0;fill:#000000;fill-opacity:1;opacity:0.1;filter:url(#filter1011)"
       d="m 25.387331,8.7384377 c -0.386,0 -0.69,0.124 -0.914,0.373 a 1.27,1.27 0 0 0 -0.336,0.877 c 0,0.3360003 0.112,0.6280003 0.336,0.8770003 0.224,0.249 0.528,0.373 0.914,0.373 0.386,0 0.69,-0.124 0.914,-0.373 a 1.27,1.27 0 0 0 0.336,-0.8770003 1.27,1.27 0 0 0 -0.336,-0.877 c -0.224,-0.249 -0.528,-0.373 -0.914,-0.373 z m -1,3.2500003 v 5 h 2 v -5 z"
       inkscape:connector-curvature="0" />
    <path
       id="path976"
       word-spacing="0"
       letter-spacing="0"
       font-weight="400"
       style="font-weight:400;line-height:1000%;font-family:Ubuntu;-inkscape-font-specification:Ubuntu;letter-spacing:0;word-spacing:0;fill:#ffffff;fill-opacity:1"
       d="m 25.387331,8.7384377 c -0.386,0 -0.69,0.124 -0.914,0.373 a 1.27,1.27 0 0 0 -0.336,0.877 c 0,0.3360003 0.112,0.6280003 0.336,0.8770003 0.224,0.249 0.528,0.373 0.914,0.373 0.386,0 0.69,-0.124 0.914,-0.373 a 1.27,1.27 0 0 0 0.336,-0.8770003 1.27,1.27 0 0 0 -0.336,-0.877 c -0.224,-0.249 -0.528,-0.373 -0.914,-0.373 z m -1,3.2500003 v 5 h 2 v -5 z"
       inkscape:connector-curvature="0" />
  </g>
</svg>
